app/assets/images/heroicons/mini/link-slash.svg

<svg width="20" height="20" viewBox="0 0 20 20" fill="none" xmlns="http://www.w3.org/2000/svg">
<path fill-rule="evenodd" clip-rule="evenodd" d="M2.21967 2.21967C2.51256 1.92678 2.98744 1.92678 3.28033 2.21967L7.74093 6.68027C7.86827 6.50173 8.01192 6.33145 8.1718 6.17157L11.1718 3.17157C12.7339 1.60948 15.2666 1.60948 16.8287 3.17157C18.3907 4.73367 18.3907 7.26633 16.8287 8.82843L15.6043 10.0528C15.3114 10.3457 14.8366 10.3457 14.5437 10.0528C14.2508 9.75987 14.2508 9.28499 14.5437 8.9921L15.768 7.76777C16.7443 6.79146 16.7443 5.20854 15.768 4.23223C14.7917 3.25592 13.2088 3.25592 12.2325 4.23223L9.23246 7.23223C9.06938 7.39532 8.9339 7.5747 8.82564 7.76498L11.4163 10.3556C11.3068 9.94385 11.0906 9.55482 10.768 9.23223C10.722 9.18619 10.6747 9.14241 10.6263 9.10085C10.312 8.83102 10.276 8.35751 10.5458 8.04325C10.8156 7.72898 11.2892 7.69296 11.6034 7.96279C11.6806 8.02905 11.7557 8.09865 11.8287 8.17157C12.8276 9.17054 13.1869 10.5656 12.9095 11.8488L17.7803 16.7197C18.0732 17.0126 18.0732 17.4874 17.7803 17.7803C17.4874 18.0732 17.0126 18.0732 16.7197 17.7803L11.5427 12.6034C11.5408 12.6015 11.5389 12.5996 11.537 12.5977L7.4034 8.46406C7.40143 8.46211 7.39947 8.46016 7.39753 8.45819L2.21967 3.28033C1.92678 2.98744 1.92678 2.51256 2.21967 2.21967ZM5.45679 9.94724C5.74969 10.2401 5.74969 10.715 5.45679 11.0079L4.23246 12.2322C3.25615 13.2085 3.25615 14.7915 4.23246 15.7678C5.20877 16.7441 6.79168 16.7441 7.76799 15.7678L9.64667 13.8891C9.93957 13.5962 10.4144 13.5962 10.7073 13.8891C11.0002 14.182 11.0002 14.6569 10.7073 14.9497L8.82865 16.8284C7.26656 18.3905 4.7339 18.3905 3.1718 16.8284C1.6097 15.2663 1.6097 12.7337 3.1718 11.1716L4.39613 9.94724C4.68903 9.65435 5.1639 9.65435 5.45679 9.94724Z" fill="black"/>
</svg>

<svg xmlns="http://www.w3.org/2000/svg" viewBox="0 0 20 20" fill="currentColor" aria-hidden="true" data-slot="icon">
  <path fill-rule="evenodd" d="M2.22 2.22a.75.75 0 0 1 1.06 0l4.46 4.46c.128-.178.272-.349.432-.508l3-3a4 4 0 0 1 5.657 5.656l-1.225 1.225a.75.75 0 1 1-1.06-1.06l1.224-1.225a2.5 2.5 0 0 0-3.536-3.536l-3 3a2.504 2.504 0 0 0-.406.533l2.59 2.59a2.49 2.49 0 0 0-.79-1.254.75.75 0 1 1 .977-1.138 3.997 3.997 0 0 1 1.306 3.886l4.871 4.87a.75.75 0 1 1-1.06 1.061l-5.177-5.177-.006-.005-4.134-4.134a.65.65 0 0 1-.005-.006L2.22 3.28a.75.75 0 0 1 0-1.06Zm3.237 7.727a.75.75 0 0 1 0 1.06l-1.225 1.225a2.5 2.5 0 0 0 3.536 3.536l1.879-1.879a.75.75 0 1 1 1.06 1.06L8.83 16.83a4 4 0 0 1-5.657-5.657l1.224-1.225a.75.75 0 0 1 1.06 0Z" clip-rule="evenodd"/>
</svg>
